X: 130306
T: McDonnell's Jig
C: Johnny Harling
Z: B.Black
R: jig
M: 6/8
L: 1/8
K: G
F | G3 gbg | e3 dBG | B3 dBG | BAG AFD |
E3 gbg | e3 def | gfe dBA | BGF G2 :|
A | B2 e efg | fed edA | B2 e efg | fdB e2 f |
gbg f3 | efe dBG | B3 AGA | BGF G2 :|
